svg/other/drawer_line.svg

<?xml version="1.0" encoding="UTF-8"?>
<svg width="24px" height="24px" viewBox="0 0 24 24" version="1.1" xmlns="http://www.w3.org/2000/svg" xmlns:xlink="http://www.w3.org/1999/xlink">
    <title>drawer_line</title>
    <g id="Icon" stroke="none" stroke-width="1" fill="none" fill-rule="evenodd">
        <g id="Business" transform="translate(-384.000000, -480.000000)" fill-rule="nonzero">
            <g id="drawer_line" transform="translate(384.000000, 480.000000)">
                <path d="M24,0 L24,24 L0,24 L0,0 L24,0 Z M12.5935,23.2578 L12.5819,23.2595 L12.5109,23.295 L12.4919,23.2987 L12.4767,23.295 L12.4057,23.2595 C12.3958,23.2564 12.387,23.259 12.3821,23.2649 L12.378,23.2758 L12.3609,23.7031 L12.3659,23.7235 L12.3769,23.7357 L12.4805,23.8097 L12.4953,23.8136 L12.5071,23.8097 L12.6107,23.7357 L12.6233,23.7197 L12.6267,23.7031 L12.6096,23.2758 C12.6076,23.2657 12.601,23.2593 12.5935,23.2578 Z M12.8584,23.1453 L12.8445,23.1473 L12.6598,23.2397 L12.6499,23.2499 L12.6472,23.2611 L12.6651,23.6906 L12.6699,23.7034 L12.6784,23.7105 L12.8793,23.8032 C12.8914,23.8069 12.9022,23.803 12.9078,23.7952 L12.9118,23.7812 L12.8777,23.1665 C12.8753,23.1546 12.8674,23.147 12.8584,23.1453 Z M12.143,23.1473 C12.1332,23.1424 12.1222,23.1453 12.1156,23.1526 L12.1099,23.1665 L12.0758,23.7812 C12.0751,23.7927 12.0828,23.8019 12.0926,23.8046 L12.1083,23.8032 L12.3092,23.7105 L12.3186,23.7024 L12.3225,23.6906 L12.3404,23.2611 L12.3372,23.2485 L12.3278,23.2397 L12.143,23.1473 Z" id="MingCute"></path>
                <path d="M18,2 C19.0543909,2 19.9181678,2.81587733 19.9945144,3.85073759 L20,4 L20,20 C20,21.0543909 19.18415,21.9181678 18.1492661,21.9945144 L18,22 L6,22 C4.94563773,22 4.08183483,21.18415 4.00548573,20.1492661 L4,20 L4,4 C4,2.94563773 4.81587733,2.08183483 5.85073759,2.00548573 L6,2 L18,2 Z M18,16 L6,16 L6,20 L18,20 L18,16 Z M13,17 C13.5523,17 14,17.4477 14,18 C14,18.51285 13.613973,18.9355092 13.1166239,18.9932725 L13,19 L11,19 C10.4477,19 10,18.5523 10,18 C10,17.48715 10.386027,17.0644908 10.8833761,17.0067275 L11,17 L13,17 Z M18,10 L6,10 L6,14 L18,14 L18,10 Z M13,11 C13.5523,11 14,11.4477 14,12 C14,12.5523 13.5523,13 13,13 L11,13 C10.4477,13 10,12.5523 10,12 C10,11.4477 10.4477,11 11,11 L13,11 Z M18,4 L6,4 L6,8 L18,8 L18,4 Z M13,5 C13.5523,5 14,5.44772 14,6 C14,6.51283143 13.613973,6.93550653 13.1166239,6.9932722 L13,7 L11,7 C10.4477,7 10,6.55228 10,6 C10,5.48716857 10.386027,5.06449347 10.8833761,5.0067278 L11,5 L13,5 Z" id="形状" fill="#09244B"></path>
            </g>
        </g>
    </g>
</svg>

<svg xmlns="http://www.w3.org/2000/svg" width="24" height="24"><g fill="none" fill-rule="nonzero"><path d="M24 0v24H0V0h24ZM12.594 23.258l-.012.002-.071.035-.02.004-.014-.004-.071-.036c-.01-.003-.019 0-.024.006l-.004.01-.017.428.005.02.01.013.104.074.015.004.012-.004.104-.074.012-.016.004-.017-.017-.427c-.002-.01-.009-.017-.016-.018Zm.264-.113-.014.002-.184.093-.01.01-.003.011.018.43.005.012.008.008.201.092c.012.004.023 0 .029-.008l.004-.014-.034-.614c-.003-.012-.01-.02-.02-.022Zm-.715.002a.023.023 0 0 0-.027.006l-.006.014-.034.614c0 .012.007.02.017.024l.015-.002.201-.093.01-.008.003-.011.018-.43-.003-.012-.01-.01-.184-.092Z"/><path fill="#09244B" d="M18 2a2 2 0 0 1 1.995 1.85L20 4v16a2 2 0 0 1-1.85 1.995L18 22H6a2 2 0 0 1-1.995-1.85L4 20V4a2 2 0 0 1 1.85-1.995L6 2h12Zm0 14H6v4h12v-4Zm-5 1a1 1 0 0 1 .117 1.993L13 19h-2a1 1 0 0 1-.117-1.993L11 17h2Zm5-7H6v4h12v-4Zm-5 1a1 1 0 1 1 0 2h-2a1 1 0 1 1 0-2h2Zm5-7H6v4h12V4Zm-5 1a1 1 0 0 1 .117 1.993L13 7h-2a1 1 0 0 1-.117-1.993L11 5h2Z"/></g></svg>
